X:1
T:Philip Doddridge, published 1766 (Hymn 304)   66. 66. 44. 44.
T:A minor Oliver Holden, 1796
T:Solicitude No copyright. Transcribed from The Union Harmony, 1796.
%%score [ 1 2 3 4 ]
L:1/8
M:4/4
K:C
V:1 treble nm="Treble" snm="Tr."
V:2 treble nm="Counter" snm="C."
V:3 treble-8 nm="Tenor" snm="T."
V:4 bass nm="Bass" snm="B."
V:1
 A4 | c2 c2 c2 B2 | A6 ^G2 | AB cd ed cB | c6 A2 | E2 A2 ^G2 G2 | (A3 B c2) B2 | A3 B c2 B2 | %8
 A6 A2 | A2 A2 c2 A2 | B3 G G3 G | c2 G2 A2 c2 | d6 d2 | e6 e2 | c2 e2 d3 f | ed cB c3 e | %16
 ed cB c3 B | AB cB (e2 d2 | c6) BA | ^G6 G2 | A8 |] %21
V:2
 E4 | E2 E2 E2 E2 | E6 E2 | E2 E2 E2 E2 | E6 E2 | E2 E2 E2 E2 | E6 F2 | E3 F E2 E2 | E6 E2 | %9
w: 1.~A-|round the bloo- dy|tree, Ye|pressed with strong de-|sire, The|won- drous sight to|see, The|Lord of life ex-|pire; And|
 C2 E2 E2 F2 | G3 G G3 G | E2 E2 E2 E2 | G6 G2 | G6 G2 | G2 G2 A3 D | E2 E2 E3 E | E2 E2 E3 C | %17
w: could your eyes have|known a tear, Had|dropped it there in|sad sur-|prise, And|could your eyes have|known a tear, Had|dropped it there, Had|
 E2 E2 (G2 A2 | G6) GF | E6 E2 | E8 |] %21
w: dropped it there~ _|_ in *|sad sur-|prise.|
V:3
 E4 | A2 A2 A2 B2 | c6 B2 | A^G AB cB AG | A6 E2 | A2 A2 B2 B2 | (c3 d e2) d2 | c3 B A2 ^G2 | %8
 A6 c2 | e2 c2 A2 c2 | d3 B c3 B | A2 E2 E2 A2 | B6 B2 | c6 c2 | e2 c2 A3 B | cB A^G A3 B | %16
 cB cd e3 d | cB A2 (E2 f2 | e6) dc | B6 B2 | A8 |] %21
V:4
 A,,4 | A,,2 A,,2 A,,2 E,2 | A,6 E,2 | E,2 E,2 E,2 E,2 | A,,6 A,,2 | A,,2 A,,2 E,2 E,2 | %6
 (C,3 B,, A,,2) B,,2 | C,3 D, E,2 E,2 | A,,6 A,,2 | C,2 A,,2 E,2 A,2 | G,3 G, C,3 D, | %11
 E,2 C,2 A,,2 D,2 | G,6 G,,2 | C,6 C,2 | C,2 C,2 D,3 D, | E,2 E,2 A,,3 E, | A,2 A,2 A,3 ^G, | %17
 A,2 E,2 (C,3 D, | E,6) E,2 | E,6 E,2 | A,,8 |] %21

